X: 35962
T: Sarah's Fiddle
R: reel
M: 4/4
K: Amajor
AF|:E3F AcBA|B2cB ABcd|~e2ce f2ac|B2 cB AEFA|
E~A3 ABcA|B2cB ABcd|~e2ce f2ac|BAcB A3 F:|
|:a~A3 A2ag|f2af f2ec|efec ABcA|B2cB AEFA|
[1 a~A3 A2ag|f2af f2ec|B2ce f2ac|BAcB A4:|
[2 E~A3 AcBA|B2cB ABcd|~e2ce ~f2ac|BAcB A3 F|

